X:25
T:Sally’s March. JClw.25
M:4/4
L:1/8
Q:1/4=160
S:J.Clews MS,Stoke-upon-Tern,Shrops.1832
R:.march
A:N. Shropshire
Z:Neil Brookes 2006
K:D
AB/c/|d2D>D F>F A>A|dAdf fdeg|fafd Bdgf|edcB AGFE|!
FDFA dFAd|fAdf adfa|gfed cd dc/d/|e6::!
A/B/c/d/|e2A>A c>c e>e|f2A>A d>d f>f|g2ef gfed|edcBA2 dc|!
BdGd AdFd|BdGd AdFd|(3fed (3cBA f2e2|d2d>dd2:||

